X: 5647
T: Buttermilk Lane
R: reel
M: 4/4
K: Dmajor
|:A2FA D~F3|AFAd fedf|e~A3 g~A3|faed cedB|
A2FA D~F3|AFAd fedf|e~A3 g~A3|fage fddB:|
|:f~B3 faed|c~A3 edcg|f~B3 faed|cBAc ~B3A|
~F3B d~B3|dfed c ~A3|defg ~a3g|fage fddB:|

